svgs/light/folder-grid.svg

<svg xmlns="http://www.w3.org/2000/svg" viewBox="0 0 512 512"><!-- Font Awesome Pro 6.0.0-alpha2 by @fontawesome - https://fontawesome.com License - https://fontawesome.com/license (Commercial License) --><path d="M448 96H272L226.746 50.746C214.742 38.742 198.465 32 181.49 32H64C28.654 32 0 60.656 0 96V416C0 451.344 28.654 480 64 480H448C483.346 480 512 451.344 512 416V160C512 124.656 483.346 96 448 96ZM480 416C480 433.645 465.645 448 448 448H64C46.355 448 32 433.645 32 416V96C32 78.355 46.355 64 64 64H181.49C190.039 64 198.074 67.328 204.117 73.375L258.746 128H448C465.645 128 480 142.355 480 160V416ZM152 240H104C90.766 240 80 250.781 80 264V312C80 325.219 90.766 336 104 336H152C165.234 336 176 325.219 176 312V264C176 250.781 165.234 240 152 240ZM144 304H112V272H144V304ZM280 240H232C218.766 240 208 250.781 208 264V312C208 325.219 218.766 336 232 336H280C293.234 336 304 325.219 304 312V264C304 250.781 293.234 240 280 240ZM272 304H240V272H272V304ZM408 240H360C346.766 240 336 250.781 336 264V312C336 325.219 346.766 336 360 336H408C421.234 336 432 325.219 432 312V264C432 250.781 421.234 240 408 240ZM400 304H368V272H400V304Z"/></svg>

<svg xmlns="http://www.w3.org/2000/svg" viewBox="0 0 512 512"><!--! Font Awesome Pro 6.3.0 by @fontawesome - https://fontawesome.com License - https://fontawesome.com/license (Commercial License) Copyright 2023 Fonticons, Inc. --><path d="M448 96h-176L226.7 50.75C214.7 38.74 198.5 32 181.5 32H64C28.65 32 0 60.66 0 96v320c0 35.34 28.65 64 64 64h384c35.35 0 64-28.66 64-64V160C512 124.7 483.3 96 448 96zM480 416c0 17.64-14.36 32-32 32H64c-17.64 0-32-14.36-32-32V96c0-17.64 14.36-32 32-32h117.5c8.549 0 16.58 3.328 22.63 9.375L258.7 128H448c17.64 0 32 14.36 32 32V416zM152 240h-48C90.77 240 80 250.8 80 264v48c0 13.22 10.77 24 24 24h48c13.23 0 24-10.78 24-24v-48C176 250.8 165.2 240 152 240zM144 304h-32v-32h32V304zM280 240h-48C218.8 240 208 250.8 208 264v48c0 13.22 10.77 24 24 24h48c13.23 0 24-10.78 24-24v-48C304 250.8 293.2 240 280 240zM272 304h-32v-32h32V304zM408 240h-48c-13.23 0-24 10.78-24 24v48c0 13.22 10.77 24 24 24h48c13.23 0 24-10.78 24-24v-48C432 250.8 421.2 240 408 240zM400 304h-32v-32h32V304z"/></svg>
